Newaita-dark/actions/16/distribute-horizontal-margin.svg

<svg height="16" viewBox="0 0 16 16" width="16" xmlns="http://www.w3.org/2000/svg"><g fill="#e0e0e0"><path d="m2.644531 1.449219c-.730469 0-1.320312.589843-1.320312 1.320312v10.585938c0 .734375.589843 1.324219 1.320312 1.324219h10.585938c.734375 0 1.324219-.589844 1.324219-1.324219v-10.585938c0-.730469-.589844-1.320312-1.324219-1.320312zm.664063 1.320312h9.261718c.363282 0 .660157.296875.660157.664063v9.261718c0 .363282-.296875.660157-.660157.660157h-9.261718c-.367188 0-.664063-.296875-.664063-.660157v-9.261718c0-.367188.296875-.664063.664063-.664063zm0 0"/><path d="m7.277344 4.425781c0 .183594-.148438.328125-.332032.328125h-2.644531c-.183593 0-.332031-.144531-.332031-.328125 0-.183593.148438-.332031.332031-.332031h2.644531c.183594 0 .332032.148438.332032.332031zm0 0"/><path d="m7.277344 11.683594v.035156c0 .171875-.148438.3125-.332032.3125h-2.644531c-.183593 0-.332031-.140625-.332031-.3125v-.035156c0-.171875.148438-.3125.332031-.3125h2.644531c.183594 0 .332032.140625.332032.3125zm0 0"/><path d="m6.960938 12.03125h-.003907c-.171875 0-.316406-.148438-.316406-.328125v-7.277344c0-.183593.144531-.332031.316406-.332031h.003907c.175781 0 .316406.148438.316406.332031v7.277344c0 .179687-.140625.328125-.316406.328125zm0 0"/><path d="m4.3125 12.03125h-.027344c-.175781 0-.316406-.140625-.316406-.316406v-7.304688c0-.175781.140625-.316406.316406-.316406h.027344c.175781 0 .316406.140625.316406.316406v7.304688c0 .175781-.140625.316406-.316406.316406zm0 0"/><path d="m11.90625 4.425781c0 .183594-.148438.328125-.328125.328125h-2.648437c-.183594 0-.328126-.144531-.328126-.328125 0-.183593.144532-.332031.328126-.332031h2.648437c.179687 0 .328125.148438.328125.332031zm0 0"/><path d="m11.90625 11.683594v.035156c0 .171875-.148438.3125-.328125.3125h-2.648437c-.183594 0-.328126-.140625-.328126-.3125v-.035156c0-.171875.144532-.3125.328126-.3125h2.648437c.179687 0 .328125.140625.328125.3125zm0 0"/><path d="m11.589844 12.03125c-.175782 0-.316406-.148438-.316406-.328125v-7.277344c0-.183593.140624-.332031.316406-.332031.175781 0 .316406.148438.316406.332031v7.277344c0 .179687-.140625.328125-.316406.328125zm0 0"/><path d="m8.945312 12.03125h-.027343c-.175781 0-.316407-.140625-.316407-.316406v-7.304688c0-.175781.140626-.316406.316407-.316406h.027343c.171876 0 .316407.140625.316407.316406v7.304688c0 .175781-.144531.316406-.316407.316406zm0 0"/></g></svg>

<svg xmlns="http://www.w3.org/2000/svg" xmlns:xlink="http://www.w3.org/1999/xlink" width="16px" height="16px" viewBox="0 0 16 16" version="1.1">
<g id="surface1">
     <defs>
  <style id="current-color-scheme" type="text/css">
   .ColorScheme-Text { color:#eeeeee; } .ColorScheme-Highlight { color:#424242; }
  </style>
 </defs>
<path style="fill:currentColor" class="ColorScheme-Text" d="M 2.644531 1.449219 C 1.914062 1.449219 1.324219 2.039062 1.324219 2.769531 L 1.324219 13.355469 C 1.324219 14.089844 1.914062 14.679688 2.644531 14.679688 L 13.230469 14.679688 C 13.964844 14.679688 14.554688 14.089844 14.554688 13.355469 L 14.554688 2.769531 C 14.554688 2.039062 13.964844 1.449219 13.230469 1.449219 Z M 3.308594 2.769531 L 12.570312 2.769531 C 12.933594 2.769531 13.230469 3.066406 13.230469 3.433594 L 13.230469 12.695312 C 13.230469 13.058594 12.933594 13.355469 12.570312 13.355469 L 3.308594 13.355469 C 2.941406 13.355469 2.644531 13.058594 2.644531 12.695312 L 2.644531 3.433594 C 2.644531 3.066406 2.941406 2.769531 3.308594 2.769531 Z M 3.308594 2.769531 "/>
     <defs>
  <style id="current-color-scheme" type="text/css">
   .ColorScheme-Text { color:#eeeeee; } .ColorScheme-Highlight { color:#424242; }
  </style>
 </defs>
<path style="fill:currentColor" class="ColorScheme-Text" d="M 7.277344 4.425781 C 7.277344 4.609375 7.128906 4.753906 6.945312 4.753906 L 4.300781 4.753906 C 4.117188 4.753906 3.96875 4.609375 3.96875 4.425781 C 3.96875 4.242188 4.117188 4.09375 4.300781 4.09375 L 6.945312 4.09375 C 7.128906 4.09375 7.277344 4.242188 7.277344 4.425781 Z M 7.277344 4.425781 "/>
     <defs>
  <style id="current-color-scheme" type="text/css">
   .ColorScheme-Text { color:#eeeeee; } .ColorScheme-Highlight { color:#424242; }
  </style>
 </defs>
<path style="fill:currentColor" class="ColorScheme-Text" d="M 7.277344 11.683594 L 7.277344 11.71875 C 7.277344 11.890625 7.128906 12.03125 6.945312 12.03125 L 4.300781 12.03125 C 4.117188 12.03125 3.96875 11.890625 3.96875 11.71875 L 3.96875 11.683594 C 3.96875 11.511719 4.117188 11.371094 4.300781 11.371094 L 6.945312 11.371094 C 7.128906 11.371094 7.277344 11.511719 7.277344 11.683594 Z M 7.277344 11.683594 "/>
     <defs>
  <style id="current-color-scheme" type="text/css">
   .ColorScheme-Text { color:#eeeeee; } .ColorScheme-Highlight { color:#424242; }
  </style>
 </defs>
<path style="fill:currentColor" class="ColorScheme-Text" d="M 6.960938 12.03125 L 6.957031 12.03125 C 6.785156 12.03125 6.640625 11.882812 6.640625 11.703125 L 6.640625 4.425781 C 6.640625 4.242188 6.785156 4.09375 6.957031 4.09375 L 6.960938 4.09375 C 7.136719 4.09375 7.277344 4.242188 7.277344 4.425781 L 7.277344 11.703125 C 7.277344 11.882812 7.136719 12.03125 6.960938 12.03125 Z M 6.960938 12.03125 "/>
     <defs>
  <style id="current-color-scheme" type="text/css">
   .ColorScheme-Text { color:#eeeeee; } .ColorScheme-Highlight { color:#424242; }
  </style>
 </defs>
<path style="fill:currentColor" class="ColorScheme-Text" d="M 4.3125 12.03125 L 4.285156 12.03125 C 4.109375 12.03125 3.96875 11.890625 3.96875 11.714844 L 3.96875 4.410156 C 3.96875 4.234375 4.109375 4.09375 4.285156 4.09375 L 4.3125 4.09375 C 4.488281 4.09375 4.628906 4.234375 4.628906 4.410156 L 4.628906 11.714844 C 4.628906 11.890625 4.488281 12.03125 4.3125 12.03125 Z M 4.3125 12.03125 "/>
     <defs>
  <style id="current-color-scheme" type="text/css">
   .ColorScheme-Text { color:#eeeeee; } .ColorScheme-Highlight { color:#424242; }
  </style>
 </defs>
<path style="fill:currentColor" class="ColorScheme-Text" d="M 11.90625 4.425781 C 11.90625 4.609375 11.757812 4.753906 11.578125 4.753906 L 8.929688 4.753906 C 8.746094 4.753906 8.601562 4.609375 8.601562 4.425781 C 8.601562 4.242188 8.746094 4.09375 8.929688 4.09375 L 11.578125 4.09375 C 11.757812 4.09375 11.90625 4.242188 11.90625 4.425781 Z M 11.90625 4.425781 "/>
     <defs>
  <style id="current-color-scheme" type="text/css">
   .ColorScheme-Text { color:#eeeeee; } .ColorScheme-Highlight { color:#424242; }
  </style>
 </defs>
<path style="fill:currentColor" class="ColorScheme-Text" d="M 11.90625 11.683594 L 11.90625 11.71875 C 11.90625 11.890625 11.757812 12.03125 11.578125 12.03125 L 8.929688 12.03125 C 8.746094 12.03125 8.601562 11.890625 8.601562 11.71875 L 8.601562 11.683594 C 8.601562 11.511719 8.746094 11.371094 8.929688 11.371094 L 11.578125 11.371094 C 11.757812 11.371094 11.90625 11.511719 11.90625 11.683594 Z M 11.90625 11.683594 "/>
     <defs>
  <style id="current-color-scheme" type="text/css">
   .ColorScheme-Text { color:#eeeeee; } .ColorScheme-Highlight { color:#424242; }
  </style>
 </defs>
<path style="fill:currentColor" class="ColorScheme-Text" d="M 11.589844 12.03125 C 11.414062 12.03125 11.273438 11.882812 11.273438 11.703125 L 11.273438 4.425781 C 11.273438 4.242188 11.414062 4.09375 11.589844 4.09375 C 11.765625 4.09375 11.90625 4.242188 11.90625 4.425781 L 11.90625 11.703125 C 11.90625 11.882812 11.765625 12.03125 11.589844 12.03125 Z M 11.589844 12.03125 "/>
     <defs>
  <style id="current-color-scheme" type="text/css">
   .ColorScheme-Text { color:#eeeeee; } .ColorScheme-Highlight { color:#424242; }
  </style>
 </defs>
<path style="fill:currentColor" class="ColorScheme-Text" d="M 8.945312 12.03125 L 8.917969 12.03125 C 8.742188 12.03125 8.601562 11.890625 8.601562 11.714844 L 8.601562 4.410156 C 8.601562 4.234375 8.742188 4.09375 8.917969 4.09375 L 8.945312 4.09375 C 9.117188 4.09375 9.261719 4.234375 9.261719 4.410156 L 9.261719 11.714844 C 9.261719 11.890625 9.117188 12.03125 8.945312 12.03125 Z M 8.945312 12.03125 "/>
</g>
</svg>
